X:531
T:The Maid of Lismore
M:3/4
L:1/8
B:O'Neill's 531
N:"Tenderly" "collected by Fielding"
Z:Transcribed by Dave Wooldridge
K:G
G>G (AB/2c/2) dB |  c>d (ec) (dB) | G2 (AB/2c/2) (BA) | G4 z2 Hx ||
g>g (fefg) | (f>g) (fe) (ed) | (dc) (BA) (Bd) | (e>f) (gb/2a/2) "D.C."g2 ||


